packages/katcn/src/icons/svg/globe.svg

<svg width="24" height="25" viewBox="0 0 24 25" fill="none" xmlns="http://www.w3.org/2000/svg">
<path d="M18.7116 2.50652C18.3137 2.10851 17.7169 2.10851 17.319 2.50652C16.9211 2.90453 16.9211 3.50154 17.319 3.89955C19.1095 5.69059 20.1042 8.07865 20.1042 10.6657C20.1042 13.2528 19.1095 15.6408 17.319 17.4319C15.5284 19.2229 13.1411 20.218 10.5548 20.218C8.36633 20.218 6.1779 19.4219 4.48685 18.0289L5.78001 16.6359C7.17264 17.7304 8.8637 18.2279 10.4553 18.2279C12.4448 18.2279 14.3348 17.5314 15.8269 16.0389C18.8111 13.0538 18.8111 8.17816 15.8269 5.29258C12.8426 2.30751 7.96843 2.30751 5.08369 5.29258C2.3979 7.97915 2.09947 12.2578 4.38737 15.2428L2.29842 17.4319C1.90053 17.8299 1.90053 18.4269 2.29842 18.8249C4.48685 21.014 7.37159 22.208 10.4553 22.208C13.539 22.208 16.4237 21.014 18.6121 18.8249C20.8006 16.6359 21.9942 13.7503 21.9942 10.6657C22.0937 7.58114 20.9 4.69557 18.7116 2.50652ZM6.5758 6.68562C7.67001 5.59109 9.16212 4.99408 10.5548 4.99408C12.0469 4.99408 13.4395 5.59109 14.5337 6.68562C16.7221 8.87467 16.7221 12.4568 14.5337 14.6458C12.3453 16.8349 8.76422 16.8349 6.5758 14.6458C4.38737 12.4568 4.38737 8.87467 6.5758 6.68562Z" fill="black"/>
</svg>

<svg xmlns="http://www.w3.org/2000/svg" fill="none" viewBox="0 0 24 25"><path fill="#000" d="M18.712 2.507a.96.96 0 0 0-1.393 0 .96.96 0 0 0 0 1.393c1.79 1.79 2.785 4.179 2.785 6.766s-.994 4.975-2.785 6.766c-1.79 1.79-4.178 2.786-6.764 2.786a9.65 9.65 0 0 1-6.068-2.19l1.293-1.392c1.393 1.094 3.084 1.592 4.675 1.592 1.99 0 3.88-.697 5.372-2.19 2.984-2.984 2.984-7.86 0-10.745-2.984-2.985-7.859-2.985-10.743 0-2.686 2.686-2.985 6.965-.697 9.95l-2.089 2.189a.96.96 0 0 0 0 1.393 11.43 11.43 0 0 0 8.157 3.383c3.084 0 5.969-1.194 8.157-3.383a11.44 11.44 0 0 0 3.382-8.16c.1-3.084-1.094-5.97-3.282-8.158M6.576 6.686C7.67 5.59 9.162 4.994 10.555 4.994c1.492 0 2.885.597 3.979 1.692 2.188 2.189 2.188 5.77 0 7.96-2.189 2.189-5.77 2.189-7.958 0s-2.189-5.771 0-7.96"/></svg>
